src/cmd/32/ar/outlinebullet.svg

<?xml version="1.0" encoding="UTF-8" standalone="no"?>
<svg
   xmlns:dc="http://purl.org/dc/elements/1.1/"
   xmlns:cc="http://creativecommons.org/ns#"
   xmlns:rdf="http://www.w3.org/1999/02/22-rdf-syntax-ns#"
   xmlns:svg="http://www.w3.org/2000/svg"
   xmlns="http://www.w3.org/2000/svg"
   xmlns:sodipodi="http://sodipodi.sourceforge.net/DTD/sodipodi-0.dtd"
   xmlns:inkscape="http://www.inkscape.org/namespaces/inkscape"
   viewBox="0 0 32 32"
   version="1.1"
   id="svg4"
   sodipodi:docname="outlinebullet.svg"
   inkscape:version="0.92.4 (5da689c313, 2019-01-14)">
  <metadata
     id="metadata10">
    <rdf:RDF>
      <cc:Work
         rdf:about="">
        <dc:format>image/svg+xml</dc:format>
        <dc:type
           rdf:resource="http://purl.org/dc/dcmitype/StillImage" />
      </cc:Work>
    </rdf:RDF>
  </metadata>
  <defs
     id="defs8" />
  <sodipodi:namedview
     pagecolor="#ffffff"
     bordercolor="#666666"
     borderopacity="1"
     objecttolerance="10"
     gridtolerance="10"
     guidetolerance="10"
     inkscape:pageopacity="0"
     inkscape:pageshadow="2"
     inkscape:window-width="1920"
     inkscape:window-height="1011"
     id="namedview6"
     showgrid="true"
     inkscape:zoom="14.75"
     inkscape:cx="15.104816"
     inkscape:cy="17.547974"
     inkscape:window-x="0"
     inkscape:window-y="32"
     inkscape:window-maximized="1"
     inkscape:current-layer="svg4">
    <inkscape:grid
       type="xygrid"
       id="grid817" />
  </sodipodi:namedview>
  <path
     d="M 28,4 V 28 H 4 V 4 Z M 27,5 H 5 V 27 H 27 Z M 23.5,7 C 24.328427,7 25,7.6715729 25,8.5 25,9.3284271 24.328427,10 23.5,10 22.671573,10 22,9.3284271 22,8.5 22,7.6715729 22.671573,7 23.5,7 Z M 20,7 V 8 H 7 V 7 Z m 0,3 v 1 H 7 v -1 z m 3.5,4 C 24.328427,14 25,14.671573 25,15.5 25,16.328427 24.328427,17 23.5,17 22.671573,17 22,16.328427 22,15.5 22,14.671573 22.671573,14 23.5,14 Z M 20,14 v 1 H 7 v -1 z m 0,3 v 1 H 7 v -1 z m 3.5,4 C 24.328427,21 25,21.671573 25,22.5 25,23.328427 24.328427,24 23.5,24 22.671573,24 22,23.328427 22,22.5 22,21.671573 22.671573,21 23.5,21 Z M 20,21 v 1 H 7 v -1 z m 0,3 v 1 H 7 v -1 z"
     id="path2"
     inkscape:connector-curvature="0"
     style="fill:#232629"
     sodipodi:nodetypes="ccccccccccsssssccccccccccsssssccccccccccssssscccccccccc" />
</svg>

<svg viewBox="0 0 32 32" xmlns="http://www.w3.org/2000/svg"><path d="m28 4v24h-24v-24zm-1 1h-22v22h22zm-3.5 2a1.5 1.5 0 0 1 1.5 1.5 1.5 1.5 0 0 1 -1.5 1.5 1.5 1.5 0 0 1 -1.5-1.5 1.5 1.5 0 0 1 1.5-1.5zm-3.5 0v1h-13v-1zm0 3v1h-9v-1zm3.5 4a1.5 1.5 0 0 1 1.5 1.5 1.5 1.5 0 0 1 -1.5 1.5 1.5 1.5 0 0 1 -1.5-1.5 1.5 1.5 0 0 1 1.5-1.5zm-3.5 0v1h-13v-1zm0 3v1h-8v-1zm-10 0v1h-3v-1zm13.5 4a1.5 1.5 0 0 1 1.5 1.5 1.5 1.5 0 0 1 -1.5 1.5 1.5 1.5 0 0 1 -1.5-1.5 1.5 1.5 0 0 1 1.5-1.5zm-3.5 0v1h-13v-1zm0 3v1h-5v-1zm-11 1v1h-2v-1z" fill="#232629"/></svg>
